packages/dnb-ui-lib/assets/icons/upload.svg

<svg width="16" height="16" viewBox="0 0 16 16" fill="none" xmlns="http://www.w3.org/2000/svg">
<path d="M4.81125 6.14308C4.51956 6.43717 4.52151 6.91204 4.81559 7.20373C5.10968 7.49542 5.58455 7.49348 5.87625 7.19939L4.81125 6.14308ZM8 3.99315L8.5325 3.465C8.39167 3.32301 8.19998 3.24315 8 3.24315C7.80002 3.24315 7.60833 3.32301 7.4675 3.465L8 3.99315ZM10.1238 7.19939C10.4154 7.49348 10.8903 7.49542 11.1844 7.20373C11.4785 6.91204 11.4804 6.43717 11.1887 6.14308L10.1238 7.19939ZM7.25 12.5C7.25 12.9142 7.58579 13.25 8 13.25C8.41421 13.25 8.75 12.9142 8.75 12.5H7.25ZM3 0.25C2.58579 0.25 2.25 0.585786 2.25 1C2.25 1.41421 2.58579 1.75 3 1.75V0.25ZM13 1.75C13.4142 1.75 13.75 1.41421 13.75 1C13.75 0.585786 13.4142 0.25 13 0.25V1.75ZM5.87625 7.19939L8.5325 4.52131L7.4675 3.465L4.81125 6.14308L5.87625 7.19939ZM7.4675 4.52131L10.1238 7.19939L11.1887 6.14308L8.5325 3.465L7.4675 4.52131ZM8.75 12.5V3.99315H7.25V12.5H8.75ZM3 1.75H13V0.25H3V1.75Z" fill="black"/>
</svg>

<svg width="16" height="16" viewBox="0 0 16 16" fill="none" xmlns="http://www.w3.org/2000/svg"><path d="M4.811 6.143A.75.75 0 005.876 7.2L4.811 6.143zM8 3.993l.533-.528a.75.75 0 00-1.065 0L8 3.993zM10.124 7.2a.75.75 0 101.065-1.056L10.124 7.2zM7.25 12.5a.75.75 0 001.5 0h-1.5zM3 .25a.75.75 0 000 1.5V.25zm10 1.5a.75.75 0 000-1.5v1.5zM5.876 7.2L8.533 4.52 7.468 3.465 4.81 6.143 5.876 7.2zM7.467 4.52L10.125 7.2l1.065-1.056-2.656-2.678-1.065 1.056zM8.75 12.5V3.993h-1.5V12.5h1.5zM3 1.75h10V.25H3v1.5z" fill="#000"/></svg>
